X: 4118
T: Blow November Wind
R: reel
M: 4/4
K: Fmajor
FG|:ADDC DEFG|Bddc A2 GF|EAAG A3A|BAGB TA2 GF|
ADDC DEFG|AddA B2 BG|A2 AF EGGA|EDDC D2 ~D2:|
Addc defd|eAAc B2 df|eAAc Bcdf|eA ~A2 BAGB|
Addc defd|eAAc B2 BG|A2 AF EGGA|EDDC D2 ~D2|
Addc defd eAAc JB4-|B2 Ac Bcdf|eA ~A2 BAGB|
Addc defd|eAAc B2 BG|A2 AF EFGA|EDDC D2 FG||

